X:1
T:Lesson 13 - G Scales
M:C
K:G
L:1/4
G,2 A,2|B,2 C2|D2 E2|F2 G2|G2 A2|B2 c2|d2 e2|f2 g2|
g2 f2|e2 d2|c2 B2|A2 G2|G2 F2|E2 D2|C2 B,2|A,2 G,2|]

